X:10
T: Abgewiesener Knabe
N: D0011
O: Europa, Mitteleuropa, Lothringen, Weiler ( Kr. Forbach )
N: in der zweiten Zeile rhythmisch korrigiert
R: Kilt - Lied, abgewiesener Knabe
M: 6/8
L: 1/16
K: F
C2 | F2G2_A2G2A2B2 | G2F4z4
cB | c2B2_A2F2B2A2 | G6z4
_A2 | G2_A2B2c2B2c2 | F4_E2E6 |
F3G_A2B3AG2 | _A2G2F4z2

@@@ Tune index: 2532
